-----BEGIN PGP PUBLIC KEY BLOCK-----

mQINBF+dvcUBEADnZSEI/BPCwgtwDmTGgDW934ktx4dArnLAc3xHOTM19gMZaJci
SmLa1Nj5GkXbBV9Pa+/Oie/bo4vxE8QqtD9yXpNrsVfXVPgHq5ZczU6oxgOoyBuw
SgvklmSN5JF/cGZ9GtkPUS6EQikkm+mViReD6dnowgxwWFsWKeMEYMGoJDPaskrG
XrAPk6KqGQhXicTGksmOSkVAaqHEp3Q5oz3GUaOJ2zmeGEzIigOL5BAcU8eCtt3/
E1jtC+I3jgs60hEtIvP0jFrC5iR5EALKmuPNRnafn48guIhisJelZ5uTHDJEMmOE
tZyb9nIkMDkNqkJxPdKzsD4M7/mFjZ5T+quOEikfYvGWTzJD1HCfUz8Zc5FogTmQ
m95Bfs1vF4UUcnpOIaVYK7puBAZ3YdiuCZeXefbgc+mqIq5rfhS6B3Kg5PCucQ6T
mq6RuskVtQDfvvpJHQFao+PL86xJVWMVCPz4d9lWJWJVU1LrCc0K51nVfK1IlXYK
huO5PtXY3VWQPmq1geygCsM6nXf9MF+cu4a0cVERJfLFzrVzH7SwRB9NBC3a2N9o
/oRltcTzMuaOD/ckANcIPz4liDiXw9IRr7ECoeiit5A9avpwgRB5zCCTt9q+qmQw
idl6y2pvIqNfWlDZDuIXard152DY+VI+Z4fsg+2a+BOZ6kj8YLGEF7pTtQARAQAB
tCRKb3NodWEgUGVpc2FjaCA8anBlaXNhY2hAdWJ1bnR1LmNvbT6JAlEEEwEIADsW
IQQibQ8YYQgcE52JnXdBw9QYmv7bWgUCaXEFugIbAwULCQgHAgIiAgYVCgkICwIE
FgIDAQIeBwIXgAAKCRBBw9QYmv7bWiTBEACdWMAYcsI5yyAjNkONaa9ksl0KGBuP
g3Hk5OudWXXr/0oW/nB7Y3Gq5ZJEPWkkuONM9JmbtKyo+hhkbzlkk2ugwGphVmqX
Dyb3L1Euuw++VPnTFp7cA6aO5pM/jKEsHEFBQms7lHNFh+VbjUNaEzevsU3eb1s+
4Tw8Lp1aqS50b/apKSESE9lu3ASLdxg2/7lMNW3nKDW/Py6BHAtMaD1+3UU69Azh
RcGOB+B3TUl1b5kvIuM12WVC5NyiMPy96QlqPGZ26XlLGDpRtJ3VW8sr+yAcNjvO
XrmaiCKV/af1clWlA4UjzRtgVfF65LQxM/Cz3hvnzh7wuMUwMoYBg0YhlT9gWng6
zFUuWA4DNG2it2k25hGa8uqXcdYm5ebHhKaSIANsm7Z6dydue1+AEkcwZfeK0rkJ
a/YUPx2vb3c1DT6QaOLZUho0eHI6yU0+fylNacLGKIpAR+NisFHhB28ERfizeOO4
dcconr4c1+LKsQL6F8d4Q8l+rJdRO5yy8wFywsMu5G0m7XSXRFoSnFa86i9ApYhj
/5xD9M6SSGkYl3QMeBdGK+EkWKC/cUe2qh74K+1LfZGixxuZzPczAAppNShpCjdT
NKfFSWDC5DRux5Np+NQuoMDYv4cZcu/90hVQtXDqYJ8rnNywRUGKslWkJbFJkQnq
5EX0poL8AtFVM7QqSm9zaHVhIFBlaXNhY2ggPGl0enN3aXJsejIwMjBAb3V0bG9v
ay5jb20+iQJOBBMBCgA4FiEEIm0PGGEIHBOdiZ13QcPUGJr+21oFAl+dvcUCGwMF
CwkIBwIGFQoJCAsCBBYCAwECHgECF4AACgkQQcPUGJr+21qLcw//QhlZfk42dQ4Y
ee2jAJKdfS+bYZmK0mUjEUzb3n13QLRpUrEjh/uDJKav7IJwM97W3TMldBxqWRRc
MAY6c4aVsoGclKwYyAtnoOwJ4hhtITpdazMEVYbNAREYqI5dlE4Ru8iNJE98E9Bv
N4kTe8fUHJOLTgd13AR/lJ/IFgADvBn/Ny139+musDfwJlHFN1RUrv2UD/RyYEu/
QBsZ3DBjrFvRaZ3zu3vppcUdiMccGweFKJENURbt/PJN5pPaHF6H8jnE+s9y1QGo
sBKjJ+IK6KjIGha8WV4e+VtRq5amDEuSet4zrCOEW3yRxQ/zL5s1/qv7bqPQevjz
iV8fKScsSjDpIy8r2Z6IJhhVJXrqPC2p+o/szF4QdUtTAfn5PufJ9cJVO2wCZZZE
bkZCZ+rAyrOjW0WEEWNhZS0Z3+af7T89ZH8/kfwvWASfNwwnQcKxHdcw7VxG2ZRG
wfB9QITBIVjVk1tx/ahoLlUyXZNRwzEPi5xYOk3jDK6fyq9L1F6QHiP4TqAVIZPt
QBJXA3rKpVDty7W7dNtRvNXPMn25sn6lgofPio0LyZdYCLiVeQDnqsgcgEpu6Aw5
cavRC5upid3nEsGUjqZMKbt6pHBZjmIiQuEFmHh/CMoeiuG21yDsq0KNPlEGuKNT
5cRZSAnmfhYdoN/XmBit21Rdxd+5SDa5Ag0EX529xQEQAK02J0g/44yTBEFj3fhC
JkCeTpKOLbmabJKpHYADx+FWztywJilJUxoA6LQc7fFZCkC+fhGLWfXNfK4u2XXU
ffekazMIMGM4EYN1aaFhworTqnoTy7W50FF9/4pRvCEhWBMc0F3YWcYTwjywXdBR
4leNfDllF0ToQvQEAD4TsNJK8M+YG+mhQIajEYGUuCMJetY9jhAkr09liX4HzqbT
hD1+MIl1gCI29iX3/A/FWV069rnzmwo6zjR9X53ZRm/TYUWnSmBV6lShiCSAX06u
pCY2FOuuviB8ohCMyAUj1HllC5reaDzqRaB2D6xHk6M0ijo5bTUGIF4Q8UIOu8fA
TZSxhtEztpSBNHLpk92++8rihoJNSzMR95dzm/JAUAGk+taSSf4SHbYo8Kd9kRIX
F9QvJ0yujQ3ICFbJkE/ke+39k2F4iSIT2Kfy9CvOuzjqgw9xMtGzUJ1UFDYEv64Z
Ze2Q7g7DgEzEDYHvqUbzdcSIdXzQE/N4k1AB+vv8O2uus0V5WmMDUZgy5uJjqS3Z
UoPitfV6KvtbJki1rLPkZHaaxqRQVjVNryThzgpFueto93sYbBhyAY/fCCnVQPia
FDluSFTXenK456o1Thwi5UoCAvMuXkR7Myyox/fHYWnErLTQkuY2A3PDMPwAJ1CB
MZOcNN3LD/eQArOLVcnEosXbABEBAAGJAjYEGAEKACAWIQQibQ8YYQgcE52JnXdB
w9QYmv7bWgUCX529xQIbDAAKCRBBw9QYmv7bWht7D/9hTTO2wL4ms0HMDmK1rpsF
vJgo3CPa7dKh2ptBD0k+M/FyQvb69vdjnZim8jIe4LMZPTAVx5XsOMJCsUPWxtLp
p/PUXKL/Zho3NCJUbUjK4jVGWpz+uhnmFMdDlXZF+TSVAgKkmc1EkVKSTdbEggrL
2Hcn/FyK5hyT+6NMI6w1itLAqvbNcUbak6Ywu9oyGYw9gq+qzppvO4kn1s+BDrms
7+/GYefQ840Pn6hnoItLaLU/tXtjR4Br/MPWkA6wCeNdpLxdzYwckV4+o4+4Phk2
550tihF8p0Rr8sTxgtKxT5rh2abCVAXbPypDcceddPKvfqZgJsvX4B+/5nUaRs1p
dcE7O0reuKY4+Vq3Ew8OmS2cVUszkdtKZ+ThqA2zZY8uvwrcvjSVPmt6JDCw8IcG
90THe1QJhmPXQ+CKYEAp+2CwYydcCincjJqea3m1JNofkVATrUZXAb+lepO+KByS
rUiOevkPqiKxhO/0ciziBczR0indMy/f7EKbQfN6cq1SJj5ksBTrbu43C+/L2dxi
mYlQrl4vbzdKw+sMByZTY1oo9h5iQTxGyt789+/2w607emsgJBJKP4ekt3OB1pom
yNSQXmz4TjLLKt5UVfnOEMZ0oZoXs1V9qiJYWh6meuFGPI7vcFAEksu1RjRbDtFu
qXGWtehVeFpse33UIAiRbg==
=Ao/5
-----END PGP PUBLIC KEY BLOCK-----
